assets/img/braze_icons/bar-line-chart.svg

<svg fill="none" height="24" viewBox="0 0 24 24" width="24" xmlns="http://www.w3.org/2000/svg"><g fill="#801ed7"><path clip-rule="evenodd" d="m10.2322 2.73223c.9763-.97631 2.5593-.97631 3.5356 0 .4546.45462.6975 1.04075.7287 1.63593l3.7092 1.39095.0265-.02688c.9763-.97631 2.5593-.97631 3.5356 0s.9763 2.55923 0 3.53554c-.9763.97633-2.5593.97633-3.5356 0-.4546-.45464-.6975-1.04081-.7287-1.63602l-3.7092-1.39093c-.0088.00904-.0176.01802-.0265.02695-.8133.81327-2.0475.94908-3.0014.40743l-4.33306 3.24983c.19173.81487-.03013 1.70727-.66557 2.34277-.97631.9763-2.55923.9763-3.53554 0s-.97631-2.55926 0-3.53557c.81329-.81329 2.04752-.94909 3.00138-.4074l4.33307-3.2498c-.19176-.8149.03009-1.70734.66552-2.3428z" fill-rule="evenodd"/><path d="m20 12c.5523 0 1 .4477 1 1v7c0 .5523-.4477 1-1 1s-1-.4477-1-1v-7c0-.5523.4477-1 1-1z"/><path d="m13 10c0-.55228-.4477-1-1-1s-1 .44772-1 1v10c0 .5523.4477 1 1 1s1-.4477 1-1z"/><path d="m4 15c.55228 0 1 .4477 1 1v4c0 .5523-.44772 1-1 1s-1-.4477-1-1v-4c0-.5523.44772-1 1-1z"/></g></svg>

<svg width="24" height="24" viewBox="0 0 24 24" fill="none" xmlns="http://www.w3.org/2000/svg">
<path fill-rule="evenodd" clip-rule="evenodd" d="M10.2322 2.73223C11.2085 1.75592 12.7915 1.75592 13.7678 2.73223C14.2224 3.18685 14.4653 3.77298 14.4965 4.36816L18.2057 5.75911L18.2322 5.73223C19.2085 4.75592 20.7915 4.75592 21.7678 5.73223C22.7441 6.70854 22.7441 8.29146 21.7678 9.26777C20.7915 10.2441 19.2085 10.2441 18.2322 9.26777C17.7776 8.81313 17.5347 8.22696 17.5035 7.63175L13.7943 6.24082C13.7855 6.24986 13.7767 6.25884 13.7678 6.26777C12.9545 7.08104 11.7203 7.21685 10.7664 6.6752L6.43334 9.92503C6.62507 10.7399 6.40321 11.6323 5.76777 12.2678C4.79146 13.2441 3.20854 13.2441 2.23223 12.2678C1.25592 11.2915 1.25592 9.70854 2.23223 8.73223C3.04552 7.91894 4.27975 7.78314 5.23361 8.32483L9.56668 5.07503C9.37492 4.26013 9.59677 3.36769 10.2322 2.73223Z" fill="#801ED7"/>
<path d="M20 12C20.5523 12 21 12.4477 21 13V20C21 20.5523 20.5523 21 20 21C19.4477 21 19 20.5523 19 20V13C19 12.4477 19.4477 12 20 12Z" fill="#801ED7"/>
<path d="M13 10C13 9.44772 12.5523 9 12 9C11.4477 9 11 9.44772 11 10L11 20C11 20.5523 11.4477 21 12 21C12.5523 21 13 20.5523 13 20L13 10Z" fill="#801ED7"/>
<path d="M4 15C4.55228 15 5 15.4477 5 16L5 20C5 20.5523 4.55228 21 4 21C3.44772 21 3 20.5523 3 20L3 16C3 15.4477 3.44772 15 4 15Z" fill="#801ED7"/>
</svg>
